src/pos-icons/clock-alert.svg

<svg height="24" viewBox="0 0 24 24" width="24" xmlns="http://www.w3.org/2000/svg"><path d="m12 2c4.46 0 8.26 2.95 9.54 7h-3.54v11c-1.67 1.25-3.75 2-6 2a10 10 0 0 1 -10-10 10 10 0 0 1 10-10m4.2 14.2.8-1.3-4.5-2.7v-5.2h-1.5v6zm3.8-5.2h2v7h-2zm0 9h2v2h-2z"/></svg>

<?xml version="1.0" encoding="UTF-8"?><!DOCTYPE svg PUBLIC "-//W3C//DTD SVG 1.1//EN" "http://www.w3.org/Graphics/SVG/1.1/DTD/svg11.dtd"><svg xmlns="http://www.w3.org/2000/svg" xmlns:xlink="http://www.w3.org/1999/xlink" version="1.1" id="mdi-clock-alert" width="24" height="24" viewBox="0 0 24 24"><path d="M12,2C16.46,2 20.26,4.95 21.54,9H18V20C16.33,21.25 14.25,22 12,22A10,10 0 0,1 2,12A10,10 0 0,1 12,2M16.2,16.2L17,14.9L12.5,12.2V7H11V13L16.2,16.2M20,11H22V18H20V11M20,20H22V22H20V20Z" /></svg>
